assets/images/drip.svg

<svg viewBox="0 0 31.50046 41.30566" xmlns="http://www.w3.org/2000/svg"><path d="m26.68115 13.56152-9.30469-13.56152-3.29834.001-9.32129 13.59177c-3.80957 5.91895-8.04248 14.68653-.85644 22.44043a16.01821 16.01821 0 0 0 11.82812 5.27246h.00049a16.01821 16.01821 0 0 0 11.82812-5.27246c8.23096-8.88086 1.37647-19.11035-.87597-22.47168zm-2.05762 19.75293a11.90647 11.90647 0 0 1 -17.78906 0c-4.14209-4.46972-3.75733-9.71972 1.25342-17.50879l7.64011-11.13866 7.63574 11.12989c5.07571 7.57811 5.46389 12.98045 1.25979 17.51756z" fill="#0743ff"/></svg>

<svg xmlns="http://www.w3.org/2000/svg" viewBox="0 0 31.50046 41.30566"><defs><style>.cls-1{fill:#0743ff;}</style></defs><title>drip</title><g id="Layer_2" data-name="Layer 2"><g id="Layer_1-2" data-name="Layer 1"><path class="cls-1" d="M26.68115,13.56152,17.37646,0,14.07812.001,4.75683,13.59277C.94726,19.51172-3.28565,28.2793,3.90039,36.0332a16.01821,16.01821,0,0,0,11.82812,5.27246H15.729A16.01821,16.01821,0,0,0,27.55712,36.0332C35.78808,27.15234,28.93359,16.92285,26.68115,13.56152ZM24.62353,33.31445a11.90647,11.90647,0,0,1-17.78906,0c-4.14209-4.46972-3.75733-9.71972,1.25342-17.50879L15.728,4.667l7.63574,11.12989C28.43945,23.375,28.82763,28.77734,24.62353,33.31445Z"/></g></g></svg>
